symbols/web/do_not_step/materialsymbolsrounded/do_not_step_wght200gradN25fill1_20px.svg

<svg xmlns="http://www.w3.org/2000/svg" height="20" width="20"><path d="m14.917 12.75-.625-.625L17.396 9v.021q.333.354.323.614-.011.261-.302.573Zm-1.438-1.625L8.938 6.583l2.041-2.041q.417-.396.969-.396t.969.396L16.5 8.104Zm3.5 7.042-5.167-5.146-2.229 2.208q-.208.188-.448.292-.239.104-.51.104H3.667q-.584 0-.979-.385-.396-.386-.396-.969v-.375q0-.354.198-.636.198-.281.552-.427.52-.229 1.01-.489.49-.261.99-.594l.729.729q.104.083.291.083.188 0 .292-.104.104-.104.104-.291 0-.188-.083-.292l-.729-.708q.125-.105.26-.229.136-.126.261-.25l.708.708q.104.104.281.094.177-.011.302-.136.104-.104.094-.292-.01-.187-.114-.291l-.855-.875q.105-.104.188-.261.083-.156.167-.343l1 .958q.124.104.291.125.167.021.271-.104.104-.083.115-.261.01-.177-.115-.322L1.333 2.521q-.145-.125-.145-.302t.145-.302q.105-.105.292-.105t.292.105l15.666 15.666q.146.146.125.302-.02.157-.146.282-.145.145-.291.145t-.292-.145Z"/></svg>

<svg xmlns="http://www.w3.org/2000/svg" height="20" width="20"><path d="M14.917 12.75 14.292 12.125 17.396 9V9.021Q17.729 9.375 17.719 9.635Q17.708 9.896 17.417 10.208ZM13.479 11.125 8.938 6.583 10.979 4.542Q11.396 4.146 11.948 4.146Q12.5 4.146 12.917 4.542L16.5 8.104ZM16.979 18.167 11.812 13.021 9.583 15.229Q9.375 15.417 9.135 15.521Q8.896 15.625 8.625 15.625H3.667Q3.083 15.625 2.688 15.24Q2.292 14.854 2.292 14.271V13.896Q2.292 13.542 2.49 13.26Q2.688 12.979 3.042 12.833Q3.562 12.604 4.052 12.344Q4.542 12.083 5.042 11.75L5.771 12.479Q5.875 12.562 6.062 12.562Q6.25 12.562 6.354 12.458Q6.458 12.354 6.458 12.167Q6.458 11.979 6.375 11.875L5.646 11.167Q5.771 11.062 5.906 10.938Q6.042 10.812 6.167 10.688L6.875 11.396Q6.979 11.5 7.156 11.49Q7.333 11.479 7.458 11.354Q7.562 11.25 7.552 11.062Q7.542 10.875 7.438 10.771L6.583 9.896Q6.688 9.792 6.771 9.635Q6.854 9.479 6.938 9.292L7.938 10.25Q8.062 10.354 8.229 10.375Q8.396 10.396 8.5 10.271Q8.604 10.188 8.615 10.01Q8.625 9.833 8.5 9.688L1.333 2.521Q1.188 2.396 1.188 2.219Q1.188 2.042 1.333 1.917Q1.438 1.812 1.625 1.812Q1.812 1.812 1.917 1.917L17.583 17.583Q17.729 17.729 17.708 17.885Q17.688 18.042 17.562 18.167Q17.417 18.312 17.271 18.312Q17.125 18.312 16.979 18.167Z"/></svg>
